X: 17385
T: High Road To Inverness, The
R: reel
M: 4/4
K: Gmajor
DG, B,G, DG, B,2|DG, B,G, B,D DG|DG, B,G, DG, B,2|CA, B,G, B,E EG:|:EF GE DG, B,2|
EF GE B,D DG|EF GE DG, B,2|CA, B,G, B,E EG|EF GE DG, B,2|
EF GE FG AF|BF GE DG B,2|CA, B,G, B,E EG:|

